X:14
T: Ritter und Herzogstochter
N: A0019
O: Europa, Mitteleuropa, Deutschland, Heidelberg
N: Heidelberger Hs. 343 Bl. 103
R: Romanze, Ballade, Lied
M: 3/1
L: 1/2
K: A
A | =c2cd2d | e2e2
e2 | =g2g=f2d | e2d2z
d | e2ee2=g | =f2e2
e2 | d2=ce2c | B2A2z
e | d2d=c2A | B=cd2
d2 | d2dd2e | =f2e2
e2 | d2=ce2c | B2A2z

